X:1
T:Madonna mia pieta
T:Madonna mia pieta
T:Orlande de Lassus
C:Orlande de Lassus
%%score [ 1 [ 2 3 ] 4 ]
L:1/8
Q:1/4=120
M:2/2
K:F
V:1 treble nm="Superius" snm="S"
V:2 treble-8 nm="Tenor 1" snm="T 1"
V:3 treble-8 nm="Tenor 2" snm="T 2"
V:4 bass nm="Bassus" snm="B"
V:1
 E2 EE GG ^F2 | z FGA GGF>G | ABG G2 F G2 :| z2 D2 EE F2- | FF F2 C c2 A | A2 ^F2 F2 G2- | %6
w: Ma- don- na mia pie- ta,|ma- don- na mia pie- ta _|_ chia- m'et a- i- ta,|1)ch'io mo- ro'e sten|* to'a tor- to'e pur vo-|le- te, io gri-|
w: |||2)vo- str'al- tie- ra|* bel- ta so- la'in- fi-|ni- ta e cau-|
w: |||3)hor- mai le sce-|* ma l'af- fa- na- ta|vi- ta, nol cre-|
w: |||4)di chie d'er- vi|* mer- ce son qua- si|ra- co, sol del-|
"^-natural" G2 ^F2 z F B2- | BAG G2 FGF | B3 A Bc d2 | B2 z A AGAA |: ^F2 FA Accc | d2 dd dccd | %12
w: * do, io gri-|* do'e nol sen- te- te, io|gri- do'e nol sen- te-|te, ac- qua ma don- n'al|fo- co, ac- qua ma don- n'al|fo- co, ch'io mi sen- to mo-|
w: * sa, e cau-|* sa ch'io me a- brus- cia|e'l con- sen- * te-|te * * * * *|||
w: * di, nol cre-|* di'e con no- stri oc- chi|io ve- de- * *|te, * * * * *|||
w: * la, sol del-|* la pe- na mi- a pren-|de- te gio- * *|co, pur gri- do'in o- gni|lo- co, ac- qua ma do n'al||
 G2 GD E G2 F |1 G2 z A AGAA :|2"^#" G2 GD E G2 F || G8 |] %16
w: ri- re, a po- co'a po-|co, ac- qua ma do- n'al|ri- re, a po- co'a po-|co.|
w: ||||
w: ||||
w: ||||
V:2
 c2 cc dd d2 | z def dd d2 | f2 _ee d2 d2 :| z2 =B2 c2 c2 | ddcc f2 ed- | dc d2 d2 d2- | %6
w: Ma- don- na mia pie- ta,|ma- don- na mia pie- ta|chia- m'et a- i- ta,|1)ch'io mo- ro'e|sten- to'a tor- to'e pur vo- le-|* * te, io gri-|
w: |||2)vo- str'al- tie-|ra bel- ta so- la'in- fi- ni-|* * ta, e cau-|
w: |||3)hor- mai le|sce- ma l'af- fa- na- ta vi-|* * ta, nol cre-|
w: |||4)di chie- d'er-|vi mer- ce son qua- si ra-|* * co, sol del-|
 d2 d2 z d f2- | ffdc d2 dd | f2 ff d g2 f | gdff ed e2 |: dAde ff e2 | d g2 f g2 ff | %12
w: * do, io gri-|* do'e nol sen- te- te, io|gri- do'e nol sen- te- *|te, ac- qua ma don- n'al fo-|co, ac- qua ma don- n'al fo|co, ch'io mi sen- to mo-|
w: * sa, e cau-|* sa ch'io me'a- brus- cia e'l|con- sen- te- * * *|te,- * * * * * *|||
w: * di, nol cre-|* di'e con no- stri oc- chi|io ve- de- * * *|te, * * * * * *|||
w: * la, sol del-|* la pe- na mi- a pren-|de- te gio- * * *|co, * * * * * *|||
 _e2 dB cc d2 |1 ddff ed e2 :|2 _e2 dB cc d2 || d8 |] %16
w: ri- re, a po- co'a po-|co, ac- qua ma do- n'al fo-|ri- re, a po- co'a po-|co.|
w: ||||
w: ||||
w: ||||
V:3
 G2 GG BB A2 | z Acc BB A2 | d2 Bc A2 G2 :| z4 z GAA | BB A3 AGF | E2 D2 A2 B2- | B2 A2 z A d2- | %7
w: Ma- don- na mia pie- ta,|ma- don- na mia pie- ta|chia- m'et a- i- ta,-|1)ch'io mo- ro'e|sten- to'a tor- to'e pur vo-|le- te, io gri-|* do, io gri-|
w: |||2)vo- str'al- tie-|ra bel- ta so- la'in fi-|ni- ta e cau-|* sa, e cau-|
w: |||3)hor- mai le|sce- ma l'af- fa- na- ta|vi- ta, nol cre-|* di, nol cre-|
w: |||4)di chie- d'er-|vi mer- ce son qua- si|ra- co, sol del-|* la, sol del-|
 dcBG A2 GA | d3 c BG A2 | G2 z2 z dd^c |: dd A2 A2 z G | B2 AA BGAB | c2 BG GG A2 |1 %13
w: * do'e nol sen- te- te, io|gri- do'e nol sen- te-|te, ac- qua ma-|don- n'al fo- co, al|fo- co ch'io mi sen- to mo-|ri- re, a po- co'a po-|
w: * sa ch'io 'a- brus- cia e'l|con- sen- te- * *|te, * * *||||
w: * di'e con no- stri oc- chi|io ve- de- * *|te, * * *||||
w: * la pe- na mi- a pren-|de- te gio- * *|co, * * *||||
"^#" G2 z2 z ddc :|2 c2 BG GG A2 || =B8 |] %16
w: co ac- qua ma-|ri- re, a po- co'a po-|co.|
w: |||
w: |||
w: |||
V:4
 C,2 C,C, G,,G, D,2 | z D,C,F, G,G,, D,2 | D,2 _E,C, D,2 G,,2 :| z2 G,2 C,2 F,2 | %4
w: Ma- don- na mia pie- ta,|ma- don- na mia pie- ta|chia- m'et a- i- ta,-|1)ch'io mo- ro'e|
w: |||2)vo- str'al- tie-|
w: |||3)hor- mai le|
w: |||4)di chie- d'er-|
 B,,B,, F,2 F,2 C,D, | A,,2 D,2 D,2 G,2- | G,2 D,2 z D, B,,2- | B,,F,G,_E, D,2 G,,D, | %8
w: sten- to'a tor- to'e pur- vo-|le- te, io gri-|* do, io gri-|* do'e nol sen- te- te, io|
w: ra bel- ta so- la'in- fi-|ni- ta e cau-|* sa, e cau-|* sa ch'io a- brus- cia e'l|
w: sce- ma l'af- fa- na- ta|vi- ta, nol cre-|* di, nol cre-|* di'e con no- stri oc- chi|
w: vi mer- ce son qua- si|ra- co, sol del|* la, sol del-|* la pe- na mi- a pren-|
 B,,3 F, G,_E, D,2 | G,,G,F,D, A,B, A,2 |:"^-natural" D,D,D,^C, D,A,, C,2 | G,,2 D,2 G,E,F,D, | %12
w: gri- do'e nol sen- te-|te, ac- qua ma- don- n'al fo-|co, ac- qua ma don- n'al fo-|co, ch'io mi sen- to mo-|
w: con- sen- te- * *|te, * * * * * *|||
w: io ve- de- * *|te, * * * * * *|||
w: de te gio- * *|co, * * * * * *|||
 C,2 G,,G,, C,_E, D,2 |1 G,,G,F,D, A,B, A,2 :|2 C,2 G,,G,, C,_E, D,2 || G,,8 |] %16
w: ri- re, a po- co'a po-|co, ac- qua ma- don- n'al fo-|ri- re, a po- co'a po-|co.|
w: ||||
w: ||||
w: ||||

